X: 32711
T: Polka Drine
R: reel
M: 4/4
K: Aminor
E2A2 cBA2|defd ecA2|E2A2 cBAc|
BdBG A2A2:|:e^fge aee2|dcd=f ecA2|
[1e^fge aee2|dcBG A2A2:|
[2E2A2 cBAc|BdBG A2A2||

